X:1
T:Standin In The Need of Prayer
T:Zion's children
T:Copyright 1881 by The Riverside Press
T:Rodeheaver's Plantation Melodies
Z:Rodeheaver's Plantation Melodies
L:1/8
Q:1/4=100
M:4/4
K:F
V:1 treble nm="Soprano" snm="S."
V:1
 c2 | c2 d2 F2 F2 | A A2 G F4 | A G2 F F4 | G F2 D C2 c2 | c2 d2 F2 F2 | A A2 G F4 | %7
w: Oh|Zi- on's chil- dren|com- ing a- long.|Com- ing a- long,|com- ing a- long. O|Zi- on's chil- dren|com- ing a- long.|
 G/G/A G>F D2 G2 | F6 || c2 | c2 c2 d>c d>e | f4 c4 | c c2 G F4 | G F2 D C2 c2 | c2 c2 d>c d>e | %15
w: Talk- ing a- bout the wel- come|day.|I|hail my moth- er in the|mor- ning.|Co- ming a- long,|com- ing a- long. I|hail my moth- er in the|
"_2. Oh don't you want to live up yonder.\n\n3. I think they are mighty happy." f4 c4 | %16
w: mor- ning.|
 A/A/G A>G F2 G2 | F6!D.C.! |] %18
w: Talk- ing a- bout the wel- come|day.|

